static/gamepad.svg

<?xml version="1.0" encoding="utf-8"?><!-- Uploaded to: SVG Repo, www.svgrepo.com, Generator: SVG Repo Mixer Tools -->
<svg width="800px" height="800px" viewBox="0 0 24 24" fill="none" xmlns="http://www.w3.org/2000/svg">
<path d="M7 6C7 5.44772 7.44771 5 8 5C8.55228 5 9 5.44772 9 6V7H10C10.5523 7 11 7.44771 11 8C11 8.55228 10.5523 9 10 9H9V10C9 10.5523 8.55228 11 8 11C7.44771 11 7 10.5523 7 10V9H6C5.44771 9 5 8.55229 5 8C5 7.44771 5.44771 7 6 7H7V6Z" fill="#0F0F0F"/>
<path d="M17 6C17 6.55229 16.5523 7 16 7C15.4477 7 15 6.55229 15 6C15 5.44772 15.4477 5 16 5C16.5523 5 17 5.44772 17 6Z" fill="#0F0F0F"/>
<path d="M16 11C16.5523 11 17 10.5523 17 10C17 9.44771 16.5523 9 16 9C15.4477 9 15 9.44771 15 10C15 10.5523 15.4477 11 16 11Z" fill="#0F0F0F"/>
<path d="M19 8C19 8.55229 18.5523 9 18 9C17.4477 9 17 8.55229 17 8C17 7.44771 17.4477 7 18 7C18.5523 7 19 7.44771 19 8Z" fill="#0F0F0F"/>
<path d="M14 9C14.5523 9 15 8.55229 15 8C15 7.44771 14.5523 7 14 7C13.4477 7 13 7.44771 13 8C13 8.55229 13.4477 9 14 9Z" fill="#0F0F0F"/>
<path fill-rule="evenodd" clip-rule="evenodd" d="M2.17856 3.46413C2.7668 1.72817 4.47823 1 5.99997 1H18C19.5217 1 21.2331 1.72817 21.8214 3.46411C22.5987 5.75813 22.9381 9.03747 23.0762 12.1306C23.2157 15.2519 23.1537 18.2926 23.0858 20.165C23.0275 21.7748 21.6987 23 20.1211 23H18.5615C17.1849 23 15.985 22.0631 15.6511 20.7276L14.4086 15.7575C14.2973 15.3123 13.8973 15 13.4384 15H10.5615C10.1026 15 9.70266 15.3123 9.59137 15.7575L8.34884 20.7276C8.01496 22.0631 6.81501 23 5.43841 23H3.87886C2.30118 23 0.972467 21.7748 0.914126 20.165C0.846263 18.2926 0.784238 15.2519 0.923689 12.1306C1.06188 9.03748 1.40122 5.75815 2.17856 3.46413ZM5.99997 3C5.00364 3 4.29265 3.45709 4.07276 4.10599C3.39318 6.11152 3.05905 9.14533 2.9217 12.2198C2.7856 15.2661 2.84594 18.2475 2.91281 20.0926C2.93098 20.5937 3.34429 21 3.87886 21H5.43841C5.89728 21 6.29726 20.6877 6.40855 20.2425L7.65109 15.2724C7.98496 13.9369 9.18491 13 10.5615 13H13.4384C14.815 13 16.015 13.9369 16.3488 15.2724L17.5914 20.2425C17.7027 20.6877 18.1026 21 18.5615 21H20.1211C20.6556 21 21.0689 20.5937 21.0871 20.0926C21.154 18.2475 21.2143 15.2661 21.0782 12.2198C20.9409 9.14532 20.6068 6.11151 19.9272 4.10598C19.7073 3.45708 18.9963 3 18 3H5.99997Z" fill="#0F0F0F"/>
</svg>

<svg xmlns="http://www.w3.org/2000/svg" width="800" height="800" fill="none" viewBox="0 0 24 24"><path fill="currentColor" d="M7 6a1 1 0 1 1 2 0v1h1a1 1 0 1 1 0 2H9v1a1 1 0 1 1-2 0V9H6a1 1 0 1 1 0-2h1zM17 6a1 1 0 1 1-2 0 1 1 0 0 1 2 0M16 11a1 1 0 1 0 0-2 1 1 0 0 0 0 2M19 8a1 1 0 1 1-2 0 1 1 0 0 1 2 0M14 9a1 1 0 1 0 0-2 1 1 0 0 0 0 2"/><path fill="currentColor" fill-rule="evenodd" d="M2.18 3.46C2.77 1.73 4.48 1 6 1h12c1.52 0 3.23.73 3.82 2.46.78 2.3 1.12 5.58 1.26 8.67.14 3.12.07 6.16 0 8.03A2.95 2.95 0 0 1 20.13 23h-1.56a3 3 0 0 1-2.9-2.27l-1.25-4.97a1 1 0 0 0-.97-.76h-2.88a1 1 0 0 0-.97.76l-1.24 4.97A3 3 0 0 1 5.44 23H3.88A2.95 2.95 0 0 1 .9 20.16c-.06-1.87-.13-4.9.01-8.03.14-3.1.48-6.37 1.26-8.67M6 3c-1 0-1.7.46-1.93 1.1-.68 2.01-1.01 5.05-1.15 8.12-.13 3.05-.07 6.03 0 7.87.01.5.42.91.96.91h1.56a1 1 0 0 0 .97-.76l1.24-4.97A3 3 0 0 1 10.56 13h2.88a3 3 0 0 1 2.9 2.27l1.25 4.97a1 1 0 0 0 .97.76h1.56c.54 0 .95-.4.97-.9.06-1.85.12-4.83-.01-7.88-.14-3.07-.47-6.1-1.15-8.11C19.7 3.46 19 3 18 3z" clip-rule="evenodd"/></svg>
